X: 6
T: Speed The Plough
R: reel
M: 4/4
L: 1/8
K: Dmaj
d3A BAFA|dAFA GFEG|FAAA AGFG|ABde feef|
d3A BAFA|dAFA GFEG|FAAA AGFG|ABde fdef:|
faaf g2eg|fedB ABde|faab afdB|ABde feee|
faaf g2eg|fedf edAF|GABG FAdB|ABde fdd2:|


Tune 901	Setting 14085

